src/assets/icons/Learn.svg

<svg xmlns="http://www.w3.org/2000/svg" height="48" width="48"><path d="m23.95 42-14.5-7.95v-12L2 18 23.95 6 46 18v15.85h-3v-14.1l-4.55 2.3v12Zm0-15.4L39.7 18 23.95 9.55 8.3 18Zm0 12 11.5-6.35v-8.4L23.95 30l-11.5-6.25v8.5Zm.05-12Zm-.05 3.7Zm0 0Z"/></svg>

<svg width="48" height="48" viewBox="0 0 48 48" fill="none" xmlns="http://www.w3.org/2000/svg">
<path d="M23.95 42L9.45 34.05V22.05L2 18L23.95 6L46 18V33.85H43V19.75L38.45 22.05V34.05L23.95 42ZM23.95 26.6L39.7 18L23.95 9.55L8.3 18L23.95 26.6ZM23.95 38.6L35.45 32.25V23.85L23.95 30L12.45 23.75V32.25L23.95 38.6Z" fill="#E0E0E0"/>
</svg>
